X:01
T: Dance of the Honeybees
C: Charlie Lennon
M: 4/4
L: 1/8
Z: Contributed 20040707175326 by Zina Lee zlee@ntw.net
K: D
DE ||:FGEF DFAF|GAFG E2 EF|GFGA (3Bcd ed|cded cAGE|
|FGEF DFAF|GAFG E2 EF|GFGA (3Bcd ed|1 cAGE D2 DE :|2 cAGE D2 (3ABc ||
|d2 ad fded|(3Bcd AF DEFA|Beed Bded|cdef gece|
|d2 ad fded|(3Bcd AF DEFA|Bdef gfed|1 cAGE D (3ABc :|2 cAGE D2 DE ||
